; generated by PrusaSlicer 2.4.0+win64 on 2024-01-21 at 07:02:46 UTC


;
;

;
;
; 

; external perimeters extrusion width = 0.45mm
; perimeters extrusion width = 0.45mm
; infill extrusion width = 0.45mm
; solid infill extrusion width = 0.45mm
; top infill extrusion width = 0.40mm
; first layer extrusion width = 0.42mm

M73 P0 R103
M201 X1250 Y1250 Z400 E5000 ; sets maximum accelerations, mm/sec^2
M203 X180 Y180 Z12 E80 ; sets maximum feedrates, mm/sec
M204 P1250 R1250 T1250 ; sets acceleration (P, T) and retract acceleration (R), mm/sec^2
M205 X8.00 Y8.00 Z2.00 E10.00 ; sets the jerk limits, mm/sec
M205 S0 T0 ; sets the minimum extruding and travel feed rate, mm/sec
M107
;TYPE:Custom
G90 ; use absolute coordinates
M83 ; extruder relative mode
M104 S170 ; set extruder temp for bed leveling
M140 S85 ; set bed temp
M109 R170 ; wait for bed leveling temp
M190 S85 ; wait for bed temp
G28 ; home all without mesh bed level
G29 ; mesh bed leveling 
M104 S230 ; set extruder temp
G92 E0.0
G1 Y-2.0 X179 F2400
G1 Z3 F720
M109 S230 ; wait for extruder temp

; intro line
G1 X170 F1000
G1 Z0.2 F720
G1 X110.0 E8.0 F900
G1 X40.0 E10.0 F700
G92 E0.0

M221 S95 ; set flow
G21 ; set units to millimeters
G90 ; use absolute coordinates
M83 ; use relative distances for extrusion
M900 K0.2 ; Filament gcode
M107
;LAYER_CHANGE
;Z:0.2
;HEIGHT:0.2
;BEFORE_LAYER_CHANGE
G92 E0.0
;0.2


G1 E-3.2 F2400
G1 Z.2 F9000
;AFTER_LAYER_CHANGE
;0.2
G1 Z.4
G1 X63.793 Y50.617
G1 Z.2
G1 E3.2 F1500
M204 S800
;TYPE:Skirt/Brim
;WIDTH:0.42
G1 F1200
G1 X64.642 Y49.549 E.04278
G1 X66 Y49.123 E.04463
G1 X114 Y49.123 E1.50501
G1 X115.307 Y49.515 E.04278
G1 X116.207 Y50.617 E.04463
G1 X122.207 Y65.617 E.50654
G1 X122.377 Y66.5 E.02819
G1 X122.377 Y128.5 E1.94397
G1 X121.985 Y129.807 E.04278
G1 X120.94 Y130.683 E.04278
G1 X120 Y130.877 E.03008
G1 X60 Y130.877 E1.88126
G1 X58.693 Y130.485 E.04278
G1 X57.817 Y129.44 E.04278
G1 X57.623 Y128.5 E.03008
G1 X57.623 Y66.5 E1.94397
G1 X57.793 Y65.617 E.02819
G1 X63.771 Y50.673 E.50466
M204 S1250
; printing object Autonom Car IR-Sensor Halterung_dicker.stl id:0 copy 0
G1 E-2.24 F2400
;WIPE_START
G1 F7200
G1 X64.642 Y49.549 E-.4503
G1 X66 Y49.123 E-.45073
G1 X66.035 Y49.123 E-.01097
;WIPE_END
G1 E-.048 F2400
G1 Z.4 F9000
G1 X106.226 Y55.793
G1 Z.2
G1 E3.2 F1500
M204 S800
;TYPE:Perimeter
G1 F1200
G1 X106.254 Y55.683 E.00356
G1 X106.461 Y55.254 E.01492
G1 X106.748 Y54.874 E.01492
G1 X107.105 Y54.559 E.01492
G1 X107.517 Y54.321 E.01492
G1 X107.968 Y54.17 E.01492
G1 X108.44 Y54.111 E.01492
G1 X108.915 Y54.146 E.01492
G1 X109.364 Y54.272 E.01462
G1 X109.701 Y54.434 E.01173
G1 X110.081 Y54.708 E.0147
G1 X110.405 Y55.057 E.01492
G1 X110.653 Y55.463 E.01492
G1 X110.816 Y55.91 E.01492
G1 X110.887 Y56.381 E.01492
G1 X110.863 Y56.856 E.01492
G1 X110.746 Y57.317 E.01492
G1 X110.539 Y57.746 E.01492
G1 X110.252 Y58.126 E.01492
G1 X109.895 Y58.441 E.01492
G1 X109.483 Y58.679 E.01492
G1 X109.032 Y58.83 E.01492
G1 X108.56 Y58.889 E.01492
G1 X108.085 Y58.854 E.01492
G1 X107.636 Y58.728 E.01462
G1 X107.299 Y58.566 E.01173
G1 X106.919 Y58.292 E.0147
G1 X106.595 Y57.943 E.01492
G1 X106.347 Y57.537 E.01492
G1 X106.184 Y57.09 E.01492
G1 X106.113 Y56.619 E.01492
G1 X106.137 Y56.144 E.01492
G1 X106.211 Y55.851 E.00948
M204 S1250
G1 X106.511 Y56.2 F9000
M204 S800
;TYPE:External perimeter
G1 F1200
G1 X106.61 Y55.812 E.01256
G1 X106.784 Y55.451 E.01256
G1 X107.026 Y55.132 E.01256
G1 X107.326 Y54.867 E.01256
G1 X107.673 Y54.667 E.01256
G1 X108.052 Y54.539 E.01256
G1 X108.45 Y54.49 E.01256
G1 X108.849 Y54.519 E.01256
G1 X109.23 Y54.626 E.01241
G1 X109.508 Y54.76 E.00965
G1 X109.831 Y54.992 E.01248
G1 X110.103 Y55.286 E.01256
G1 X110.312 Y55.627 E.01256
G1 X110.449 Y56.004 E.01256
G1 X110.509 Y56.4 E.01256
G1 X110.489 Y56.8 E.01256
G1 X110.39 Y57.188 E.01256
G1 X110.216 Y57.549 E.01256
G1 X109.974 Y57.868 E.01256
G1 X109.674 Y58.133 E.01256
G1 X109.327 Y58.333 E.01256
G1 X108.948 Y58.461 E.01256
G1 X108.55 Y58.51 E.01256
G1 X108.151 Y58.481 E.01255
G1 X107.77 Y58.374 E.01241
G1 X107.492 Y58.24 E.00965
G1 X107.169 Y58.008 E.01248
G1 X106.897 Y57.714 E.01256
G1 X106.688 Y57.373 E.01256
G1 X106.551 Y56.996 E.01256
G1 X106.491 Y56.6 E.01256
G1 X106.508 Y56.26 E.01068
M204 S1250
G1 X106.199 Y55.951 F9000
G1 E-2.24 F2400
;WIPE_START
G1 F7200
G1 X106.61 Y55.812 E-.14549
G1 X106.784 Y55.451 E-.12681
G1 X107.026 Y55.132 E-.12682
G1 X107.326 Y54.867 E-.12682
G1 X107.673 Y54.667 E-.12681
G1 X108.052 Y54.539 E-.12683
G1 X108.45 Y54.49 E-.12682
G1 X108.467 Y54.491 E-.00559
;WIPE_END
G1 E-.048 F2400
G1 Z.4 F9000
G1 X73.865 Y56.818
G1 Z.2
G1 E3.2 F1500
M204 S800
;TYPE:Perimeter
G1 F1200
G1 X73.746 Y57.317 E.0161
G1 X73.539 Y57.746 E.01492
G1 X73.252 Y58.126 E.01492
G1 X72.895 Y58.441 E.01492
G1 X72.483 Y58.679 E.01492
G1 X72.032 Y58.83 E.01492
G1 X71.56 Y58.889 E.01492
G1 X71.085 Y58.854 E.01492
G1 X70.627 Y58.725 E.01492
G1 X70.203 Y58.508 E.01492
G1 X69.837 Y58.216 E.01469
G1 X69.591 Y57.937 E.01166
G1 X69.347 Y57.537 E.01469
G1 X69.184 Y57.09 E.01493
G1 X69.113 Y56.619 E.01492
G1 X69.137 Y56.144 E.01492
G1 X69.254 Y55.683 E.01492
G1 X69.461 Y55.254 E.01492
G1 X69.748 Y54.874 E.01492
G1 X70.105 Y54.559 E.01492
G1 X70.517 Y54.321 E.01492
G1 X70.968 Y54.17 E.01492
G1 X71.44 Y54.111 E.01492
G1 X71.915 Y54.146 E.01492
G1 X72.373 Y54.275 E.01492
G1 X72.797 Y54.492 E.01492
G1 X73.161 Y54.783 E.01462
G1 X73.409 Y55.063 E.01173
G1 X73.653 Y55.463 E.0147
G1 X73.816 Y55.91 E.01492
G1 X73.887 Y56.381 E.01492
G1 X73.868 Y56.758 E.01184
M204 S1250
G1 X73.509 Y56.4 F9000
M204 S800
;TYPE:External perimeter
G1 F1200
G1 X73.489 Y56.8 E.01256
G1 X73.39 Y57.188 E.01256
G1 X73.216 Y57.549 E.01256
G1 X72.974 Y57.868 E.01256
G1 X72.674 Y58.133 E.01256
G1 X72.327 Y58.333 E.01256
G1 X71.948 Y58.461 E.01256
G1 X71.55 Y58.51 E.01256
G1 X71.151 Y58.481 E.01256
G1 X70.765 Y58.372 E.01256
G1 X70.409 Y58.189 E.01256
G1 X70.098 Y57.941 E.01247
G1 X69.896 Y57.712 E.00959
G1 X69.688 Y57.373 E.01247
G1 X69.551 Y56.996 E.01256
G1 X69.491 Y56.6 E.01256
G1 X69.511 Y56.2 E.01256
G1 X69.61 Y55.812 E.01256
G1 X69.784 Y55.451 E.01256
G1 X70.026 Y55.132 E.01256
G1 X70.326 Y54.867 E.01256
G1 X70.673 Y54.667 E.01256
G1 X71.053 Y54.539 E.01256
G1 X71.45 Y54.49 E.01256
G1 X71.849 Y54.519 E.01256
G1 X72.235 Y54.628 E.01256
G1 X72.591 Y54.811 E.01255
G1 X72.901 Y55.057 E.01241
G1 X73.104 Y55.288 E.00965
G1 X73.312 Y55.627 E.01248
G1 X73.449 Y56.004 E.01256
G1 X73.5 Y56.34 E.01068
M204 S1250
G1 X73.865 Y56.582 F9000
G1 E-2.24 F2400
;WIPE_START
G1 F7200
G1 X73.489 Y56.8 E-.1455
G1 X73.39 Y57.188 E-.12682
G1 X73.216 Y57.549 E-.12682
G1 X72.974 Y57.868 E-.12682
G1 X72.674 Y58.133 E-.12682
G1 X72.327 Y58.333 E-.12682
G1 X71.948 Y58.461 E-.12681
G1 X71.93 Y58.463 E-.0056
;WIPE_END
G1 E-.048 F2400
G1 Z.4 F9000
G1 X99.213 Y60.736
G1 Z.2
G1 E3.2 F1500
M204 S800
;TYPE:Perimeter
G1 F1200
G1 X99.213 Y127.713 E2.10002
G1 X80.787 Y127.713 E.57773
M73 P0 R102
G1 X80.787 Y60.713 E2.10074
G1 X66.787 Y60.713 E.43896
G1 X66.787 Y52.287 E.26419
G1 X113.213 Y52.287 E1.45565
G1 X113.213 Y60.713 E.26419
G1 X99.25 Y60.713 E.4378
M204 S1250
G1 X99.59 Y61.09 F9000
M204 S800
;TYPE:External perimeter
G1 F1200
G1 X99.59 Y128.09 E2.10074
G1 X80.41 Y128.09 E.60138
G1 X80.41 Y61.09 E2.10074
G1 X66.41 Y61.09 E.43896
G1 X66.41 Y51.91 E.28783
G1 X113.59 Y51.91 E1.4793
G1 X113.59 Y61.09 E.28783
G1 X99.65 Y61.09 E.43708
M204 S1250
G1 X99.197 Y61.167 F9000
G1 E-2.24 F2400
;WIPE_START
G1 F7200
G1 X99.647 Y63.97 E-.912
;WIPE_END
G1 E-.048 F2400
G1 Z.4 F9000
G1 X112.335 Y52.4
G1 Z.2
G1 E3.2 F1500
M204 S800
;TYPE:Solid infill
;WIDTH:0.421009
G1 F1200
G1 X112.93 Y52.995 E.02644
G1 X112.93 Y53.53 E.01681
G1 X111.97 Y52.57 E.04267
G1 X111.436 Y52.57 E.01681
G1 X112.93 Y54.064 E.06644
G1 X112.93 Y54.599 E.01681
G1 X110.901 Y52.57 E.09022
G1 X110.366 Y52.57 E.01681
G1 X112.93 Y55.134 E.11399
G1 X112.93 Y55.668 E.01681
G1 X109.832 Y52.57 E.13776
G1 X109.297 Y52.57 E.01681
G1 X112.93 Y56.203 E.16153
G1 X112.93 Y56.738 E.01681
G1 X108.762 Y52.57 E.18531
G1 X108.228 Y52.57 E.01681
M73 P1 R102
G1 X112.93 Y57.272 E.20908
G1 X112.93 Y57.807 E.01681
G1 X111.114 Y55.991 E.08073
G1 X111.171 Y56.367 E.01193
G1 X111.161 Y56.572 E.00648
G1 X112.93 Y58.342 E.07867
G1 X112.93 Y58.877 E.01681
G1 X111.105 Y57.052 E.08113
G1 X110.987 Y57.468 E.01361
G1 X112.93 Y59.411 E.08639
G1 X112.93 Y59.946 E.01681
G1 X110.813 Y57.829 E.09411
G1 X110.593 Y58.144 E.01207
G1 X112.88 Y60.43 E.10166
G1 X112.345 Y60.43 E.01681
G1 X110.34 Y58.425 E.08914
G1 X110.055 Y58.675 E.01191
G1 X111.81 Y60.43 E.07804
G1 X111.275 Y60.43 E.01681
G1 X109.716 Y58.871 E.06934
G1 X109.6 Y58.938 E.00421
G1 X109.337 Y59.026 E.00873
G1 X110.741 Y60.43 E.06243
G1 X110.206 Y60.43 E.01681
G1 X108.907 Y59.131 E.05777
G1 X108.567 Y59.173 E.01078
G1 X108.402 Y59.161 E.00518
G1 X109.841 Y60.6 E.06396
M204 S1250
G1 E-2.24 F2400
;WIPE_START
G1 F7200
G1 X108.402 Y59.161 E-.64429
G1 X108.567 Y59.173 E-.05216
G1 X108.907 Y59.131 E-.10855
G1 X109.146 Y59.37 E-.107
;WIPE_END
G1 E-.048 F2400
G1 Z.4 F9000
G1 X107.523 Y52.4
G1 Z.2
G1 E3.2 F1500
M204 S800
G1 F1200
G1 X108.999 Y53.876 E.06562
G1 X108.417 Y53.829 E.01836
G1 X107.158 Y52.57 E.05596
G1 X106.623 Y52.57 E.01681
G1 X107.942 Y53.888 E.05861
G1 X107.536 Y54.017 E.01339
G1 X106.089 Y52.57 E.06433
G1 X105.554 Y52.57 E.01681
G1 X107.176 Y54.192 E.07211
G1 X106.939 Y54.329 E.0086
G1 X106.853 Y54.404 E.00358
G1 X105.019 Y52.57 E.08155
G1 X104.485 Y52.57 E.01681
G1 X106.569 Y54.655 E.09269
G1 X106.333 Y54.953 E.01197
G1 X103.95 Y52.57 E.10597
G1 X103.415 Y52.57 E.01681
G1 X106.131 Y55.286 E.12075
G1 X105.969 Y55.658 E.01276
G1 X102.881 Y52.57 E.13729
G1 X102.346 Y52.57 E.01681
G1 X105.86 Y56.084 E.15624
G1 X105.831 Y56.59 E.01593
G1 X101.811 Y52.57 E.17873
G1 X101.276 Y52.57 E.01681
G1 X105.932 Y57.226 E.20701
G1 X106.091 Y57.66 E.01453
G1 X106.368 Y58.115 E.01674
G1 X106.73 Y58.505 E.01674
G1 X107.154 Y58.81 E.01641
G1 X107.536 Y58.993 E.01331
G1 X107.764 Y59.057 E.00744
G1 X109.137 Y60.43 E.06104
G1 X108.602 Y60.43 E.01681
G1 X100.742 Y52.57 E.34947
G1 X100.207 Y52.57 E.01681
G1 X108.067 Y60.43 E.34947
G1 X107.533 Y60.43 E.01681
G1 X99.672 Y52.57 E.34947
G1 X99.138 Y52.57 E.01681
G1 X106.998 Y60.43 E.34947
G1 X106.463 Y60.43 E.01681
G1 X98.603 Y52.57 E.34947
G1 X98.068 Y52.57 E.01681
G1 X105.928 Y60.43 E.34947
G1 X105.394 Y60.43 E.01681
G1 X97.534 Y52.57 E.34947
G1 X96.999 Y52.57 E.01681
G1 X104.859 Y60.43 E.34947
G1 X104.324 Y60.43 E.01681
G1 X96.464 Y52.57 E.34947
G1 X95.929 Y52.57 E.01681
G1 X103.79 Y60.43 E.34947
G1 X103.255 Y60.43 E.01681
G1 X95.395 Y52.57 E.34947
G1 X94.86 Y52.57 E.01681
G1 X102.72 Y60.43 E.34947
G1 X102.186 Y60.43 E.01681
G1 X94.325 Y52.57 E.34947
G1 X93.791 Y52.57 E.01681
G1 X101.651 Y60.43 E.34947
G1 X101.116 Y60.43 E.01681
G1 X93.256 Y52.57 E.34947
G1 X92.721 Y52.57 E.01681
G1 X100.582 Y60.43 E.34947
G1 X100.047 Y60.43 E.01681
G1 X92.187 Y52.57 E.34947
G1 X91.652 Y52.57 E.01681
G1 X99.512 Y60.43 E.34947
G1 X98.977 Y60.43 E.01681
G1 X91.117 Y52.57 E.34947
G1 X90.582 Y52.57 E.01681
G1 X98.93 Y60.918 E.37114
G1 X98.93 Y61.452 E.01681
G1 X90.048 Y52.57 E.39491
G1 X89.513 Y52.57 E.01681
G1 X98.93 Y61.987 E.41869
G1 X98.93 Y62.522 E.01681
G1 X88.978 Y52.57 E.44246
G1 X88.444 Y52.57 E.01681
G1 X98.93 Y63.056 E.46623
G1 X98.93 Y63.591 E.01681
G1 X87.909 Y52.57 E.49001
G1 X87.374 Y52.57 E.01681
G1 X98.93 Y64.126 E.51378
G1 X98.93 Y64.66 E.01681
G1 X86.84 Y52.57 E.53755
G1 X86.305 Y52.57 E.01681
G1 X98.93 Y65.195 E.56132
G1 X98.93 Y65.73 E.01681
G1 X85.77 Y52.57 E.5851
G1 X85.235 Y52.57 E.01681
G1 X98.93 Y66.265 E.60887
G1 X98.93 Y66.799 E.01681
G1 X84.701 Y52.57 E.63264
G1 X84.166 Y52.57 E.01681
G1 X98.93 Y67.334 E.65642
G1 X98.93 Y67.869 E.01681
G1 X83.631 Y52.57 E.68019
G1 X83.097 Y52.57 E.01681
G1 X98.93 Y68.403 E.70396
G1 X98.93 Y68.938 E.01681
G1 X82.562 Y52.57 E.72773
G1 X82.027 Y52.57 E.01681
G1 X98.93 Y69.473 E.75151
G1 X98.93 Y70.007 E.01681
G1 X81.493 Y52.57 E.77528
G1 X80.958 Y52.57 E.01681
G1 X98.93 Y70.542 E.79905
G1 X98.93 Y71.077 E.01681
M73 P1 R101
G1 X80.423 Y52.57 E.82283
G1 X79.888 Y52.57 E.01681
G1 X98.93 Y71.612 E.8466
G1 X98.93 Y72.146 E.01681
G1 X79.354 Y52.57 E.87037
G1 X78.819 Y52.57 E.01681
G1 X98.93 Y72.681 E.89414
G1 X98.93 Y73.216 E.01681
G1 X78.284 Y52.57 E.91792
G1 X77.75 Y52.57 E.01681
G1 X98.93 Y73.75 E.94169
G1 X98.93 Y74.285 E.01681
G1 X77.215 Y52.57 E.96546
G1 X76.68 Y52.57 E.01681
G1 X98.93 Y74.82 E.98924
G1 X98.93 Y75.354 E.01681
G1 X76.146 Y52.57 E1.01301
G1 X75.611 Y52.57 E.01681
G1 X98.93 Y75.889 E1.03678
G1 X98.93 Y76.424 E.01681
G1 X75.076 Y52.57 E1.06056
G1 X74.541 Y52.57 E.01681
G1 X98.93 Y76.959 E1.08433
G1 X98.93 Y77.493 E.01681
G1 X74.007 Y52.57 E1.1081
G1 X73.472 Y52.57 E.01681
G1 X98.93 Y78.028 E1.13187
G1 X98.93 Y78.563 E.01681
G1 X72.937 Y52.57 E1.15565
G1 X72.403 Y52.57 E.01681
G1 X80.263 Y60.43 E.34947
G1 X79.728 Y60.43 E.01681
G1 X71.868 Y52.57 E.34947
G1 X71.333 Y52.57 E.01681
G1 X79.194 Y60.43 E.34947
G1 X78.659 Y60.43 E.01681
G1 X74.096 Y55.867 E.20288
G1 X74.171 Y56.367 E.01589
G1 X74.166 Y56.472 E.0033
G1 X78.124 Y60.43 E.17599
G1 X77.589 Y60.43 E.01681
M73 P2 R101
G1 X74.127 Y56.968 E.15395
G1 X74.018 Y57.394 E.01383
G1 X77.055 Y60.43 E.135
G1 X76.52 Y60.43 E.01681
G1 X73.848 Y57.758 E.11881
G1 X73.782 Y57.894 E.00477
G1 X73.639 Y58.083 E.00746
G1 X75.985 Y60.43 E.10433
G1 X75.451 Y60.43 E.01681
G1 X73.396 Y58.376 E.09134
G1 X73.112 Y58.626 E.01191
G1 X74.916 Y60.43 E.0802
G1 X74.381 Y60.43 E.01681
G1 X72.783 Y58.832 E.07106
G1 X72.6 Y58.938 E.00665
G1 X72.416 Y58.999 E.0061
G1 X73.847 Y60.43 E.06361
G1 X73.312 Y60.43 E.01681
G1 X72.001 Y59.119 E.05829
G1 X71.517 Y59.17 E.0153
G1 X72.777 Y60.43 E.05604
G1 X72.242 Y60.43 E.01681
G1 X70.666 Y58.853 E.07011
M204 S1250
G1 E-2.24 F2400
;WIPE_START
G1 F7200
G1 X72.242 Y60.43 E-.70617
G1 X72.777 Y60.43 E-.16932
G1 X72.696 Y60.349 E-.03651
;WIPE_END
G1 E-.048 F2400
G1 Z.4 F9000
G1 X72.392 Y54.163
G1 Z.2
G1 E3.2 F1500
M204 S800
G1 F1200
G1 X70.799 Y52.57 E.07082
G1 X70.264 Y52.57 E.01681
G1 X71.528 Y53.834 E.05619
G1 X71.433 Y53.827 E.00297
G1 X71.036 Y53.876 E.0126
G1 X69.729 Y52.57 E.05809
G1 X69.195 Y52.57 E.01681
G1 X70.615 Y53.99 E.06315
G1 X70.4 Y54.062 E.00712
G1 X70.243 Y54.153 E.0057
G1 X68.66 Y52.57 E.07039
G1 X68.125 Y52.57 E.01681
G1 X69.91 Y54.354 E.07934
G1 X69.626 Y54.605 E.01191
G1 X67.59 Y52.57 E.09049
G1 X67.07 Y52.57 E.01637
G1 X69.379 Y54.893 E.10298
G1 X69.218 Y55.106 E.00838
G1 X69.166 Y55.214 E.0038
G1 X67.07 Y53.119 E.09318
G1 X67.07 Y53.653 E.01681
G1 X68.992 Y55.575 E.08545
G1 X68.881 Y56 E.01379
G1 X67.07 Y54.188 E.08055
G1 X67.07 Y54.723 E.01681
G1 X68.836 Y56.489 E.07853
G1 X68.829 Y56.633 E.00454
G1 X68.897 Y57.085 E.01435
G1 X67.07 Y55.258 E.08124
G1 X67.07 Y55.792 E.01681
G1 X71.708 Y60.43 E.2062
G1 X71.173 Y60.43 E.01681
G1 X67.07 Y56.327 E.18243
G1 X67.07 Y56.862 E.01681
G1 X70.638 Y60.43 E.15866
G1 X70.104 Y60.43 E.01681
G1 X67.07 Y57.396 E.13489
G1 X67.07 Y57.931 E.01681
G1 X69.569 Y60.43 E.11111
G1 X69.034 Y60.43 E.01681
G1 X67.07 Y58.466 E.08734
G1 X67.07 Y59 E.01681
G1 X68.5 Y60.43 E.06357
G1 X67.965 Y60.43 E.01681
G1 X67.07 Y59.535 E.03979
G1 X67.07 Y60.07 E.01681
G1 X67.6 Y60.6 E.02356
M204 S1250
G1 E-2.24 F2400
;WIPE_START
G1 F7200
G1 X67.07 Y60.07 E-.23736
G1 X67.07 Y59.535 E-.16932
G1 X67.965 Y60.43 E-.40083
G1 X68.295 Y60.43 E-.10449
;WIPE_END
G1 E-.048 F2400
G1 Z.4 F9000
G1 X80.9 Y61.067
G1 Z.2
G1 E3.2 F1500
M204 S800
G1 F1200
G1 X98.93 Y79.097 E.80162
G1 X98.93 Y79.632 E.01681
G1 X81.07 Y61.772 E.79407
G1 X81.07 Y62.306 E.01681
G1 X98.93 Y80.167 E.79407
G1 X98.93 Y80.701 E.01681
G1 X81.07 Y62.841 E.79407
G1 X81.07 Y63.376 E.01681
G1 X98.93 Y81.236 E.79407
G1 X98.93 Y81.771 E.01681
G1 X81.07 Y63.911 E.79407
G1 X81.07 Y64.445 E.01681
G1 X98.93 Y82.305 E.79407
G1 X98.93 Y82.84 E.01681
G1 X81.07 Y64.98 E.79407
G1 X81.07 Y65.515 E.01681
G1 X98.93 Y83.375 E.79407
G1 X98.93 Y83.91 E.01681
G1 X81.07 Y66.049 E.79407
G1 X81.07 Y66.584 E.01681
G1 X98.93 Y84.444 E.79407
G1 X98.93 Y84.979 E.01681
G1 X81.07 Y67.119 E.79407
G1 X81.07 Y67.653 E.01681
G1 X98.93 Y85.514 E.79407
G1 X98.93 Y86.048 E.01681
