; generated by PrusaSlicer 2.4.0+win64 on 2022-10-03 at 12:18:05 UTC


;
;

;
;
; 

; external perimeters extrusion width = 0.45mm
; perimeters extrusion width = 0.45mm
; infill extrusion width = 0.45mm
; solid infill extrusion width = 0.45mm
; top infill extrusion width = 0.40mm
; first layer extrusion width = 0.42mm

M73 P0 R88
M201 X1250 Y1250 Z400 E5000 ; sets maximum accelerations, mm/sec^2
M203 X180 Y180 Z12 E80 ; sets maximum feedrates, mm/sec
M204 P1250 R1250 T1250 ; sets acceleration (P, T) and retract acceleration (R), mm/sec^2
M205 X8.00 Y8.00 Z2.00 E10.00 ; sets the jerk limits, mm/sec
M205 S0 T0 ; sets the minimum extruding and travel feed rate, mm/sec
M107
;TYPE:Custom
G90 ; use absolute coordinates
M83 ; extruder relative mode
M104 S170 ; set extruder temp for bed leveling
M140 S85 ; set bed temp
M109 R170 ; wait for bed leveling temp
M190 S85 ; wait for bed temp
G28 ; home all without mesh bed level
G29 ; mesh bed leveling 
M104 S230 ; set extruder temp
G92 E0.0
G1 Y-2.0 X179 F2400
G1 Z3 F720
M109 S230 ; wait for extruder temp

; intro line
G1 X170 F1000
G1 Z0.2 F720
G1 X110.0 E8.0 F900
G1 X40.0 E10.0 F700
G92 E0.0

M221 S95 ; set flow
G21 ; set units to millimeters
G90 ; use absolute coordinates
M83 ; use relative distances for extrusion
M900 K0.2 ; Filament gcode
M107
;LAYER_CHANGE
;Z:0.2
;HEIGHT:0.2
;BEFORE_LAYER_CHANGE
G92 E0.0
;0.2


G1 E-3.2 F2400
G1 Z.2 F9000
;AFTER_LAYER_CHANGE
;0.2
G1 Z.4
G1 X64.188 Y51.02
G1 Z.2
G1 E3.2 F1500
M204 S800
;TYPE:Skirt/Brim
;WIDTH:0.42
G1 F1200
G1 X64.642 Y50.449 E.02288
G1 X66 Y50.023 E.04463
G1 X114 Y50.023 E1.50501
G1 X115.307 Y50.415 E.04278
M73 P0 R87
G1 X116.207 Y51.517 E.04463
G1 X122.207 Y66.517 E.50654
G1 X122.377 Y67.4 E.02819
G1 X122.377 Y127.6 E1.88753
G1 X121.985 Y128.907 E.04278
G1 X120.94 Y129.783 E.04278
G1 X120 Y129.977 E.03008
G1 X60 Y129.977 E1.88126
G1 X58.693 Y129.585 E.04278
G1 X57.817 Y128.54 E.04278
G1 X57.623 Y127.6 E.03008
G1 X57.623 Y67.4 E1.88753
G1 X57.793 Y66.517 E.02819
G1 X63.793 Y51.517 E.50654
G1 X64.151 Y51.067 E.01802
M204 S1250
; printing object Autonom Car IR-Sensor Halterung.stl id:0 copy 0
G1 E-2.24 F2400
;WIPE_START
G1 F7200
G1 X64.642 Y50.449 E-.25003
G1 X66 Y50.023 E-.45073
G1 X66.667 Y50.023 E-.21124
;WIPE_END
G1 E-.048 F2400
G1 Z.4 F9000
G1 X67.877 Y107.757
G1 Z.2
G1 E3.2 F1500
M204 S800
;TYPE:Perimeter
G1 F1200
G1 X68.373 Y107.889 E.0161
G1 X68.796 Y108.106 E.01491
G1 X69.157 Y108.392 E.01443
G1 X69.409 Y108.676 E.01191
G1 X69.653 Y109.077 E.01472
G1 X69.816 Y109.524 E.01492
G1 X69.887 Y109.995 E.01492
G1 X69.863 Y110.47 E.01492
G1 X69.746 Y110.931 E.01492
G1 X69.539 Y111.36 E.01492
G1 X69.252 Y111.74 E.01492
G1 X68.895 Y112.054 E.01492
G1 X68.483 Y112.292 E.01492
G1 X68.032 Y112.444 E.01492
G1 X67.56 Y112.503 E.01492
G1 X67.085 Y112.468 E.01492
G1 X66.627 Y112.339 E.01492
G1 X66.204 Y112.122 E.01491
G1 X65.843 Y111.836 E.01443
G1 X65.591 Y111.551 E.01191
G1 X65.347 Y111.151 E.01472
G1 X65.184 Y110.704 E.01492
G1 X65.113 Y110.233 E.01492
G1 X65.137 Y109.758 E.01492
G1 X65.254 Y109.296 E.01492
G1 X65.461 Y108.868 E.01492
G1 X65.748 Y108.488 E.01492
G1 X66.105 Y108.173 E.01492
G1 X66.517 Y107.935 E.01492
G1 X66.968 Y107.784 E.01492
G1 X67.44 Y107.725 E.01492
G1 X67.817 Y107.753 E.01184
M204 S1250
G1 X67.45 Y108.103 F9000
M204 S800
;TYPE:External perimeter
G1 F1200
G1 X67.849 Y108.133 E.01256
G1 X68.235 Y108.242 E.01256
G1 X68.591 Y108.424 E.01255
G1 X68.896 Y108.667 E.01223
G1 X69.104 Y108.902 E.00983
G1 X69.312 Y109.241 E.01248
G1 X69.449 Y109.618 E.01256
G1 X69.509 Y110.014 E.01256
G1 X69.489 Y110.414 E.01256
G1 X69.39 Y110.802 E.01256
G1 X69.216 Y111.163 E.01256
G1 X68.974 Y111.482 E.01256
G1 X68.674 Y111.747 E.01256
G1 X68.327 Y111.947 E.01256
G1 X67.947 Y112.075 E.01256
G1 X67.55 Y112.124 E.01256
G1 X67.151 Y112.094 E.01256
G1 X66.765 Y111.986 E.01256
G1 X66.409 Y111.803 E.01255
G1 X66.104 Y111.561 E.01223
G1 X65.896 Y111.326 E.00983
G1 X65.688 Y110.986 E.01248
G1 X65.551 Y110.61 E.01256
G1 X65.491 Y110.214 E.01256
G1 X65.511 Y109.814 E.01256
G1 X65.61 Y109.426 E.01256
G1 X65.784 Y109.065 E.01256
G1 X66.026 Y108.746 E.01256
G1 X66.326 Y108.481 E.01256
G1 X66.673 Y108.281 E.01256
G1 X67.053 Y108.153 E.01256
G1 X67.39 Y108.111 E.01068
M204 S1250
G1 X67.641 Y107.752 F9000
G1 E-2.24 F2400
;WIPE_START
G1 F7200
G1 X67.849 Y108.133 E-.14549
G1 X68.235 Y108.242 E-.12682
G1 X68.591 Y108.424 E-.12676
G1 X68.896 Y108.667 E-.12349
G1 X69.104 Y108.902 E-.09928
G1 X69.312 Y109.241 E-.12609
G1 X69.449 Y109.618 E-.12681
G1 X69.466 Y109.734 E-.03726
;WIPE_END
G1 E-.048 F2400
G1 Z.4 F9000
G1 X67.123 Y75.471
G1 Z.2
G1 E3.2 F1500
M204 S800
;TYPE:Perimeter
G1 F1200
G1 X66.627 Y75.339 E.0161
G1 X66.204 Y75.122 E.01491
G1 X65.843 Y74.836 E.01443
G1 X65.591 Y74.551 E.01191
G1 X65.347 Y74.151 E.01472
G1 X65.184 Y73.704 E.01492
G1 X65.113 Y73.233 E.01492
G1 X65.137 Y72.758 E.01492
G1 X65.254 Y72.296 E.01492
G1 X65.461 Y71.868 E.01492
G1 X65.748 Y71.488 E.01492
G1 X66.105 Y71.173 E.01492
G1 X66.517 Y70.935 E.01492
G1 X66.968 Y70.784 E.01492
G1 X67.44 Y70.725 E.01492
G1 X67.915 Y70.76 E.01492
G1 X68.373 Y70.889 E.01492
G1 X68.796 Y71.106 E.01491
G1 X69.157 Y71.392 E.01443
G1 X69.409 Y71.676 E.01191
G1 X69.653 Y72.077 E.01472
G1 X69.816 Y72.524 E.01492
G1 X69.887 Y72.995 E.01492
G1 X69.863 Y73.47 E.01492
G1 X69.746 Y73.931 E.01492
G1 X69.539 Y74.36 E.01492
G1 X69.252 Y74.74 E.01492
G1 X68.895 Y75.054 E.01492
G1 X68.483 Y75.292 E.01492
G1 X68.032 Y75.444 E.01492
G1 X67.56 Y75.503 E.01492
G1 X67.183 Y75.475 E.01184
M204 S1250
G1 X67.55 Y75.124 F9000
M204 S800
;TYPE:External perimeter
G1 F1200
G1 X67.151 Y75.094 E.01256
G1 X66.765 Y74.986 E.01256
G1 X66.409 Y74.803 E.01255
G1 X66.104 Y74.561 E.01223
G1 X65.896 Y74.326 E.00983
G1 X65.688 Y73.986 E.01248
G1 X65.551 Y73.61 E.01256
G1 X65.491 Y73.214 E.01256
G1 X65.511 Y72.814 E.01256
G1 X65.61 Y72.426 E.01256
G1 X65.784 Y72.065 E.01256
G1 X66.026 Y71.746 E.01256
G1 X66.326 Y71.481 E.01256
G1 X66.673 Y71.281 E.01256
G1 X67.053 Y71.153 E.01256
G1 X67.45 Y71.103 E.01256
G1 X67.849 Y71.133 E.01256
G1 X68.235 Y71.242 E.01256
G1 X68.591 Y71.424 E.01255
G1 X68.896 Y71.667 E.01223
G1 X69.104 Y71.902 E.00983
G1 X69.312 Y72.241 E.01248
G1 X69.449 Y72.618 E.01256
G1 X69.509 Y73.014 E.01256
G1 X69.489 Y73.414 E.01256
G1 X69.39 Y73.802 E.01256
G1 X69.216 Y74.163 E.01256
G1 X68.974 Y74.482 E.01256
G1 X68.674 Y74.747 E.01256
G1 X68.327 Y74.947 E.01256
G1 X67.948 Y75.075 E.01256
G1 X67.61 Y75.117 E.01068
M204 S1250
G1 X67.359 Y75.476 F9000
G1 E-2.24 F2400
;WIPE_START
G1 F7200
G1 X67.151 Y75.094 E-.14549
G1 X66.765 Y74.986 E-.12682
G1 X66.409 Y74.803 E-.12677
G1 X66.104 Y74.561 E-.12349
G1 X65.896 Y74.326 E-.09928
G1 X65.688 Y73.986 E-.12609
G1 X65.551 Y73.61 E-.12681
G1 X65.534 Y73.494 E-.03725
;WIPE_END
G1 E-.048 F2400
G1 Z.4 F9000
G1 X74.213 Y68.587
G1 Z.2
G1 E3.2 F1500
M204 S800
;TYPE:Perimeter
G1 F1200
G1 X74.213 Y126.813 E1.82563
G1 X60.787 Y126.813 E.42096
G1 X60.787 Y68.187 E1.83817
G1 X74.213 Y68.187 E.42096
G1 X74.213 Y68.527 E.01066
M204 S1250
G1 X74.59 Y67.81 F9000
M204 S800
;TYPE:External perimeter
G1 F1200
G1 X74.59 Y127.19 E1.86182
G1 X60.41 Y127.19 E.4446
G1 X60.41 Y67.81 E1.86182
G1 X74.53 Y67.81 E.44272
M204 S1250
G1 X74.559 Y68.209 F9000
G1 E-2.24 F2400
;WIPE_START
G1 F7200
G1 X74.533 Y70.69 E-.912
;WIPE_END
G1 E-.048 F2400
G1 Z.4 F9000
G1 X74.1 Y69.065
G1 Z.2
G1 E3.2 F1500
M204 S800
;TYPE:Solid infill
;WIDTH:0.421141
G1 F1200
G1 X73.505 Y68.47 E.02646
G1 X72.97 Y68.47 E.01682
G1 X73.93 Y69.43 E.04271
G1 X73.93 Y69.965 E.01682
G1 X72.435 Y68.47 E.0665
G1 X71.9 Y68.47 E.01682
G1 X73.93 Y70.5 E.09028
G1 X73.93 Y71.035 E.01682
G1 X71.365 Y68.47 E.11407
G1 X70.83 Y68.47 E.01682
G1 X73.93 Y71.57 E.13786
G1 X73.93 Y72.105 E.01682
G1 X70.295 Y68.47 E.16165
G1 X69.761 Y68.47 E.01682
G1 X73.93 Y72.639 E.18544
G1 X73.93 Y73.174 E.01682
G1 X69.226 Y68.47 E.20923
G1 X68.691 Y68.47 E.01682
G1 X73.93 Y73.709 E.23302
G1 X73.93 Y74.244 E.01682
G1 X68.156 Y68.47 E.25681
G1 X67.621 Y68.47 E.01682
M73 P1 R87
G1 X73.93 Y74.779 E.2806
G1 X73.93 Y75.314 E.01682
G1 X67.086 Y68.47 E.30439
G1 X66.551 Y68.47 E.01682
G1 X73.93 Y75.849 E.32818
G1 X73.93 Y76.384 E.01682
G1 X70.108 Y72.561 E.17
G1 X70.171 Y72.981 E.01334
G1 X70.162 Y73.151 E.00536
G1 X73.93 Y76.918 E.16757
G1 X73.93 Y77.453 E.01682
G1 X70.113 Y73.636 E.16977
G1 X69.999 Y74.057 E.01372
G1 X73.93 Y77.988 E.17483
G1 X73.93 Y78.523 E.01682
G1 X69.825 Y74.418 E.18257
G1 X69.782 Y74.508 E.00314
G1 X69.609 Y74.737 E.00901
G1 X73.93 Y79.058 E.19219
G1 X73.93 Y79.593 E.01682
G1 X69.359 Y75.022 E.20329
G1 X69.075 Y75.273 E.01192
G1 X73.93 Y80.128 E.21593
G1 X73.93 Y80.663 E.01682
G1 X68.739 Y75.471 E.23089
G1 X68.6 Y75.552 E.00504
G1 X68.364 Y75.631 E.00784
G1 X73.93 Y81.198 E.24758
G1 X73.93 Y81.732 E.01682
G1 X67.938 Y75.741 E.26649
G1 X67.567 Y75.787 E.01178
G1 X67.441 Y75.778 E.00397
G1 X74.1 Y82.437 E.29617
M204 S1250
G1 E-2.24 F2400
;WIPE_START
G1 F7200
G1 X72.063 Y80.401 E-.912
;WIPE_END
G1 E-.048 F2400
G1 Z.4 F9000
G1 X68.297 Y70.75
G1 Z.2
G1 E3.2 F1500
M204 S800
G1 F1200
G1 X66.016 Y68.47 E.10141
G1 X65.482 Y68.47 E.01682
G1 X67.454 Y70.442 E.08771
G1 X66.975 Y70.498 E.01516
G1 X64.947 Y68.47 E.0902
G1 X64.412 Y68.47 E.01682
G1 X66.563 Y70.621 E.09569
G1 X66.4 Y70.676 E.00541
G1 X66.199 Y70.792 E.00729
G1 X63.877 Y68.47 E.10329
G1 X63.342 Y68.47 E.01682
G1 X65.873 Y71.001 E.11257
G1 X65.589 Y71.252 E.01192
G1 X62.807 Y68.47 E.12372
G1 X62.272 Y68.47 E.01682
G1 X65.349 Y71.547 E.13684
G1 X65.218 Y71.719 E.00682
G1 X65.143 Y71.875 E.00545
G1 X61.737 Y68.47 E.15147
G1 X61.202 Y68.47 E.01682
G1 X64.976 Y72.243 E.16782
G1 X64.867 Y72.67 E.01384
G1 X61.07 Y68.872 E.16889
G1 X61.07 Y69.407 E.01682
G1 X65.017 Y73.354 E.17554
M204 S1250
G1 E-2.24 F2400
;WIPE_START
G1 F7200
G1 X62.98 Y71.317 E-.912
;WIPE_END
G1 E-.048 F2400
G1 Z.4 F9000
G1 X60.9 Y69.772
G1 Z.2
G1 E3.2 F1500
M204 S800
G1 F1200
G1 X64.912 Y73.784 E.17844
G1 X65.091 Y74.274 E.01639
G1 X65.363 Y74.72 E.01644
G1 X65.648 Y75.042 E.01351
G1 X66.05 Y75.361 E.01613
G1 X66.523 Y75.603 E.01673
G1 X66.813 Y75.685 E.00947
G1 X73.93 Y82.802 E.31655
G1 X73.93 Y83.337 E.01682
G1 X61.07 Y70.477 E.57197
G1 X61.07 Y71.012 E.01682
G1 X73.93 Y83.872 E.57197
G1 X73.93 Y84.407 E.01682
G1 X61.07 Y71.547 E.57197
G1 X61.07 Y72.081 E.01682
G1 X73.93 Y84.942 E.57197
G1 X73.93 Y85.477 E.01682
G1 X61.07 Y72.616 E.57197
G1 X61.07 Y73.151 E.01682
G1 X73.93 Y86.012 E.57197
G1 X73.93 Y86.546 E.01682
G1 X61.07 Y73.686 E.57197
G1 X61.07 Y74.221 E.01682
G1 X73.93 Y87.081 E.57197
G1 X73.93 Y87.616 E.01682
G1 X61.07 Y74.756 E.57197
G1 X61.07 Y75.291 E.01682
G1 X73.93 Y88.151 E.57197
G1 X73.93 Y88.686 E.01682
G1 X61.07 Y75.826 E.57197
G1 X61.07 Y76.361 E.01682
G1 X73.93 Y89.221 E.57197
G1 X73.93 Y89.756 E.01682
G1 X61.07 Y76.895 E.57197
G1 X61.07 Y77.43 E.01682
G1 X73.93 Y90.291 E.57197
G1 X73.93 Y90.825 E.01682
G1 X61.07 Y77.965 E.57197
G1 X61.07 Y78.5 E.01682
M73 P1 R86
G1 X73.93 Y91.36 E.57197
G1 X73.93 Y91.895 E.01682
G1 X61.07 Y79.035 E.57197
G1 X61.07 Y79.57 E.01682
G1 X73.93 Y92.43 E.57197
G1 X73.93 Y92.965 E.01682
G1 X61.07 Y80.105 E.57197
G1 X61.07 Y80.64 E.01682
G1 X73.93 Y93.5 E.57197
G1 X73.93 Y94.035 E.01682
G1 X61.07 Y81.175 E.57197
G1 X61.07 Y81.709 E.01682
G1 X73.93 Y94.57 E.57197
G1 X73.93 Y95.105 E.01682
G1 X61.07 Y82.244 E.57197
G1 X61.07 Y82.779 E.01682
G1 X73.93 Y95.639 E.57197
G1 X73.93 Y96.174 E.01682
G1 X61.07 Y83.314 E.57197
G1 X61.07 Y83.849 E.01682
G1 X73.93 Y96.709 E.57197
G1 X73.93 Y97.244 E.01682
G1 X61.07 Y84.384 E.57197
G1 X61.07 Y84.919 E.01682
G1 X73.93 Y97.779 E.57197
G1 X73.93 Y98.314 E.01682
G1 X61.07 Y85.454 E.57197
G1 X61.07 Y85.988 E.01682
G1 X73.93 Y98.849 E.57197
G1 X73.93 Y99.384 E.01682
G1 X61.07 Y86.523 E.57197
G1 X61.07 Y87.058 E.01682
G1 X73.93 Y99.919 E.57197
G1 X73.93 Y100.453 E.01682
G1 X61.07 Y87.593 E.57197
G1 X61.07 Y88.128 E.01682
G1 X73.93 Y100.988 E.57197
G1 X73.93 Y101.523 E.01682
G1 X61.07 Y88.663 E.57197
G1 X61.07 Y89.198 E.01682
G1 X73.93 Y102.058 E.57197
G1 X73.93 Y102.593 E.01682
G1 X61.07 Y89.733 E.57197
G1 X61.07 Y90.268 E.01682
G1 X73.93 Y103.128 E.57197
G1 X73.93 Y103.663 E.01682
G1 X61.07 Y90.802 E.57197
G1 X61.07 Y91.337 E.01682
G1 X73.93 Y104.198 E.57197
G1 X73.93 Y104.733 E.01682
G1 X61.07 Y91.872 E.57197
G1 X61.07 Y92.407 E.01682
G1 X73.93 Y105.267 E.57197
G1 X73.93 Y105.802 E.01682
G1 X61.07 Y92.942 E.57197
G1 X61.07 Y93.477 E.01682
G1 X73.93 Y106.337 E.57197
G1 X73.93 Y106.872 E.01682
G1 X61.07 Y94.012 E.57197
G1 X61.07 Y94.547 E.01682
M73 P2 R86
G1 X73.93 Y107.407 E.57197
G1 X73.93 Y107.942 E.01682
G1 X61.07 Y95.082 E.57197
G1 X61.07 Y95.616 E.01682
G1 X73.93 Y108.477 E.57197
G1 X73.93 Y109.012 E.01682
G1 X61.07 Y96.151 E.57197
G1 X61.07 Y96.686 E.01682
G1 X73.93 Y109.546 E.57197
G1 X73.93 Y110.081 E.01682
G1 X61.07 Y97.221 E.57197
G1 X61.07 Y97.756 E.01682
G1 X73.93 Y110.616 E.57197
G1 X73.93 Y111.151 E.01682
G1 X61.07 Y98.291 E.57197
G1 X61.07 Y98.826 E.01682
G1 X73.93 Y111.686 E.57197
G1 X73.93 Y112.221 E.01682
G1 X61.07 Y99.361 E.57197
G1 X61.07 Y99.896 E.01682
G1 X73.93 Y112.756 E.57197
G1 X73.93 Y113.291 E.01682
G1 X70.09 Y109.451 E.17077
G1 X69.909 Y108.954 E.01665
G1 X69.637 Y108.507 E.01644
G1 X69.352 Y108.186 E.01351
G1 X68.95 Y107.867 E.01613
G1 X68.477 Y107.624 E.01673
G1 X68.181 Y107.541 E.00969
G1 X61.07 Y100.43 E.31625
G1 X61.07 Y100.965 E.01682
G1 X67.554 Y107.45 E.28839
G1 X67.433 Y107.44 E.00381
G1 X67.057 Y107.488 E.01192
G1 X61.07 Y101.5 E.2663
G1 X61.07 Y102.035 E.01682
G1 X66.633 Y107.598 E.24742
G1 X66.4 Y107.676 E.00772
G1 X66.258 Y107.758 E.00516
G1 X61.07 Y102.57 E.23075
G1 X61.07 Y103.105 E.01682
G1 X65.922 Y107.957 E.21582
G1 X65.638 Y108.208 E.01192
G1 X61.07 Y103.64 E.20318
G1 X61.07 Y104.175 E.01682
G1 X65.389 Y108.494 E.1921
G1 X65.218 Y108.719 E.0089
G1 X65.173 Y108.813 E.00326
G1 X61.07 Y104.709 E.1825
G1 X61.07 Y105.244 E.01682
G1 X64.999 Y109.174 E.17476
G1 X64.886 Y109.595 E.01373
G1 X61.07 Y105.779 E.16973
G1 X61.07 Y106.314 E.01682
G1 X64.837 Y110.082 E.16756
G1 X64.829 Y110.247 E.00522
G1 X64.893 Y110.672 E.01352
G1 X60.9 Y106.679 E.17759
M204 S1250
G1 E-2.24 F2400
;WIPE_START
G1 F7200
G1 X62.937 Y108.716 E-.912
;WIPE_END
G1 E-.048 F2400
G1 Z.4 F9000
G1 X74.1 Y113.995
G1 Z.2
G1 E3.2 F1500
M204 S800
G1 F1200
G1 X70.167 Y110.062 E.17492
G1 X70.132 Y110.562 E.01576
G1 X73.93 Y114.36 E.16894
G1 X73.93 Y114.895 E.01682
G1 X70.023 Y110.988 E.17376
G1 X69.856 Y111.356 E.01269
G1 X73.93 Y115.43 E.18122
G1 X73.93 Y115.965 E.01682
G1 X69.649 Y111.684 E.19041
G1 X69.409 Y111.979 E.01196
G1 X73.93 Y116.5 E.2011
G1 X73.93 Y117.035 E.01682
G1 X69.125 Y112.229 E.21373
G1 X69.061 Y112.285 E.00266
G1 X68.798 Y112.437 E.00957
G1 X73.93 Y117.57 E.22827
G1 X73.93 Y118.105 E.01682
G1 X68.433 Y112.608 E.24449
G1 X68.021 Y112.73 E.01352
G1 X73.93 Y118.64 E.26281
G1 X73.93 Y119.174 E.01682
G1 X67.541 Y112.785 E.28416
G1 X67.036 Y112.748 E.01594
G1 X66.942 Y112.721 E.00306
G1 X73.93 Y119.709 E.3108
G1 X73.93 Y120.244 E.01682
G1 X61.07 Y107.384 E.57197
G1 X61.07 Y107.919 E.01682
G1 X73.93 Y120.779 E.57197
G1 X73.93 Y121.314 E.01682
G1 X61.07 Y108.454 E.57197
G1 X61.07 Y108.989 E.01682
G1 X73.93 Y121.849 E.57197
G1 X73.93 Y122.384 E.01682
G1 X61.07 Y109.523 E.57197
G1 X61.07 Y110.058 E.01682
G1 X73.93 Y122.919 E.57197
G1 X73.93 Y123.453 E.01682
G1 X61.07 Y110.593 E.57197
G1 X61.07 Y111.128 E.01682
G1 X73.93 Y123.988 E.57197
G1 X73.93 Y124.523 E.01682
G1 X61.07 Y111.663 E.57197
G1 X61.07 Y112.198 E.01682
G1 X73.93 Y125.058 E.57197
G1 X73.93 Y125.593 E.01682
G1 X61.07 Y112.733 E.57197
G1 X61.07 Y113.268 E.01682
M73 P2 R85
G1 X73.93 Y126.128 E.57197
G1 X73.93 Y126.53 E.01265
G1 X73.797 Y126.53 E.00417
G1 X61.07 Y113.803 E.56607
G1 X61.07 Y114.337 E.01682
G1 X73.263 Y126.53 E.54228
G1 X72.728 Y126.53 E.01682
G1 X61.07 Y114.872 E.51849
G1 X61.07 Y115.407 E.01682
G1 X72.193 Y126.53 E.4947
G1 X71.658 Y126.53 E.01682
G1 X61.07 Y115.942 E.47091
G1 X61.07 Y116.477 E.01682
G1 X71.123 Y126.53 E.44712
G1 X70.588 Y126.53 E.01682
G1 X61.07 Y117.012 E.42333
G1 X61.07 Y117.547 E.01682
G1 X70.053 Y126.53 E.39954
G1 X69.518 Y126.53 E.01682
